X: 16471
T: Hag's Dream, The
R: slip jig
M: 9/8
K: Cmajor
|:cec e2 f gec|cec e2 c dBG|cec e2 f gec|ece fdB c3:|
|:GBG B2 c dBG|ede B2 c dBG|GBG B2 c dBG|ee/e/e fdB c3:|

